app/dist/common/images/new-china-life-ins-co-ltd.svg

<svg height="18" viewBox="0 0 18 18" width="18" xmlns="http://www.w3.org/2000/svg" xmlns:xlink="http://www.w3.org/1999/xlink"><linearGradient id="a"><stop offset=".77" stop-color="#fff"/><stop offset=".93" stop-color="#0b52a2"/></linearGradient><linearGradient id="b" gradientUnits="userSpaceOnUse" x1="4.52" x2="7.82" xlink:href="#a" y1="9.04" y2="13.3"/><linearGradient id="c" gradientUnits="userSpaceOnUse" x1="13.48" x2="10.18" xlink:href="#a" y1="8.96" y2="4.7"/><linearGradient id="d" gradientUnits="userSpaceOnUse" x1="9.04" x2="13.3" xlink:href="#a" y1="13.48" y2="10.18"/><linearGradient id="e" gradientUnits="userSpaceOnUse" x1="8.96" x2="4.7" xlink:href="#a" y1="4.52" y2="7.82"/><path d="m0 0h18v18h-18z" fill="#f0f3fa"/><circle cx="9" cy="9" fill="#0b52a2" r="5"/><path d="m9 3 6 6-6 6-6-6z" fill="#0b52a2"/><path d="m6 9.61c0-1.08.6-2.19.9-2.61l2.1 2.08-2.1 1.83 1.67 1.56-.71.53c-1.1-1.02-1.86-2.04-1.86-3.39z" fill="url(#b)"/><path d="m12 8.39a5.1 5.1 0 0 1 -.9 2.61l-2.1-2.08 2-1.83-1.57-1.56.71-.53c1.1 1.02 1.86 2.04 1.86 3.39z" fill="url(#c)"/><path d="m9.61 12a5.1 5.1 0 0 1 -2.61-.9l2.08-2.1 1.83 2.1 1.56-1.67.53.71c-1.02 1.1-2.04 1.86-3.39 1.86z" fill="url(#d)"/><path d="m8.39 6c1.08 0 2.19.6 2.61.9l-2.08 2.1-1.83-2-1.56 1.57-.53-.71c1.02-1.1 2.04-1.86 3.39-1.86z" fill="url(#e)"/><circle cx="8.98" cy="8.98" fill="#fff" r="2.92"/></svg>

<!-- by TradingView --><svg width="18" height="18" viewBox="0 0 18 18" xmlns="http://www.w3.org/2000/svg"><path fill="#F0F3FA" d="M0 0h18v18H0z"/><circle cx="9" cy="9" r="5" fill="#0B52A2"/><path d="m9 3 6 6-6 6-6-6 6-6Z" fill="#0B52A2"/><path d="M6 9.61c0-1.08.6-2.19.9-2.61L9 9.08l-2.1 1.83 1.67 1.56-.71.53C6.76 11.98 6 10.96 6 9.61Z" fill="url(#a4ib0mwe0)"/><path d="M12 8.39a5.1 5.1 0 0 1-.9 2.61L9 8.92l2-1.83-1.57-1.56.71-.53C11.24 6.02 12 7.04 12 8.39Z" fill="url(#b4ib0mwe0)"/><path d="M9.61 12A5.1 5.1 0 0 1 7 11.1L9.08 9l1.83 2.1 1.56-1.67.53.71C11.98 11.24 10.96 12 9.61 12Z" fill="url(#c4ib0mwe0)"/><path d="M8.39 6c1.08 0 2.19.6 2.61.9L8.92 9 7.09 7 5.53 8.57 5 7.86C6.02 6.76 7.04 6 8.39 6Z" fill="url(#d4ib0mwe0)"/><circle cx="8.98" cy="8.98" r="2.92" fill="#fff"/><defs><linearGradient id="a4ib0mwe0" x1="4.52" y1="9.04" x2="7.82" y2="13.3" gradientUnits="userSpaceOnUse"><stop offset=".77" stop-color="#fff"/><stop offset=".93" stop-color="#0B52A2"/></linearGradient><linearGradient id="b4ib0mwe0" x1="13.48" y1="8.96" x2="10.18" y2="4.7" gradientUnits="userSpaceOnUse"><stop offset=".77" stop-color="#fff"/><stop offset=".93" stop-color="#0B52A2"/></linearGradient><linearGradient id="c4ib0mwe0" x1="9.04" y1="13.48" x2="13.3" y2="10.18" gradientUnits="userSpaceOnUse"><stop offset=".77" stop-color="#fff"/><stop offset=".93" stop-color="#0B52A2"/></linearGradient><linearGradient id="d4ib0mwe0" x1="8.96" y1="4.52" x2="4.7" y2="7.82" gradientUnits="userSpaceOnUse"><stop offset=".77" stop-color="#fff"/><stop offset=".93" stop-color="#0B52A2"/></linearGradient></defs></svg>
